X: 291
T: A Night At The Fair
R: jig
M: 6/8
K: Gmajor
B2 A GED|EGG G2 d|BGG dBG|BAA AGA|
B2 A GED|EGG G2 A|B2 e dBA|BGG G2:|
egg eaa|e2 g ged|BGG dBG|1 BAA ABd|
egg eaa|e2 g ged|B2 G dBA|B/c/BF G2:|
[2 BAA AGA|B2 A GED|EGG G2 A|B2 e dBA|BGG G2||

